X:87
T: Buda haozi lengle tai
N: C1580
O: China,Jiangsu, Taixing
S: III, 476]
R: Haozi, Cheshui haozi]
M: 2/4
L: 1/16
K: G
b2aba4- | a8 | g2a2d2e2 | d6(3bdb | a8 |
g2a2d2ab | bag6 |
g2a2dba2- | a6bag2e2 | gge2z4 |
dba4(3aba | g8 |
aaabgega | a2geage6
g2a2dba2- | a2bag2e2 | g2abageg | d6e2 | d8 |
e2ged2d2 | e2ega4 |
a2dba2ag | a2dba2ag | e2ged4 |
eeged2d2 | eeged2d2 |
e2ega6ge | g2abageg | d6e2 | d8

@@@ Tune index: 6642
